src/actions/16/format-text-italic.svg

<svg xmlns="http://www.w3.org/2000/svg" viewBox="0 0 16 16">
  <defs id="defs3051">
    <style type="text/css" id="current-color-scheme">
      .ColorScheme-Text {
        color:#2e3440;
      }
      </style>
  </defs>
 <path style="fill:currentColor;fill-opacity:1;stroke:none" 
       d="M 5 2 L 5 3 L 6 3 L 9 3 L 4.71875 13 L 2 13 L 2 14 L 4.28125 14 L 6.28125 14 L 10 14 L 11 14 L 11 13 L 10 13 L 7 13 L 11.28125 3 L 14 3 L 14 2 L 11.71875 2 L 9.71875 2 L 6 2 L 5 2 z "
     class="ColorScheme-Text"
     />
</svg>

<svg viewBox="0 0 16 16" xmlns="http://www.w3.org/2000/svg">
 <defs>
  <style type="text/css">.ColorScheme-Text {
        color:#2e3440;
      }</style>
 </defs>
 <path class="ColorScheme-Text" d="m5 2v1h1 3l-4.2812 10h-2.7188v1h2.2812 2 3.7188 1v-1h-1-3l4.2812-10h2.7188v-1h-2.2812-2-3.7188-1z" fill="currentColor"/>
</svg>
